X:1
T:Title
L:1/8
M:12/8
K:Ab
V:1 treble nm="Grand Piano"
V:1
 z6 z3 z2[Q:1/4=140] F | A3 A2 A F3 F2 F | G3 G2 G E3- E2 E | F3 F2 F D3 D2 D | F3 E2 D C3- C2 F | %5
 A3 A2 A F3 F2 F | G3 G2 G E3- E2 E | F3 F2 F D3 D2 D |[M:9/8] F3 E2 D C3 |[M:3/8] z z C | %10
[M:6/4] F3 A2 B c3 c2 c | d3 B2 A G4- GC | =E3 G2 A B3 B2 B | d3 d2 d c4- cc | =A3 A2 B c3 c2 c | %15
 e3 dce d4- dB | G3 G2 A B3 B2 B | d3 cBd c4- cA | F3 F2 G E3 EDE | F3 E2 D C6 |] %20

